X:1
T:Grand Island, LM
T:Carols Old and Carols New (Bosto
T:Grand Island, LM
T:Public Domain
C:Carols Old and Carols New (Bosto
Z:Public Domain
%%score ( 1 2 ) ( 3 4 )
L:1/8
M:4/4
K:C
V:1 treble 
V:2 treble 
V:3 bass 
V:4 bass 
V:1
 [Gc]4 [Ge]2 [Gc]2 | ([EG]2 [DF]2 [CE]2) [Af]2 | (e2 d2) ([Gc]2 [FB]2) | [Ec]4 z2 [Ec]2 | %4
 [EG]2 [CE]2 [EG]2 [Ec]2 | ([Ge]2 [Fd]2) ([Fd]2 [Ec]2) x2 | ([Ec]4 [DB]2) [Ec]2 | %7
 ([Ec]2 [Ge]2 [Fd]2) [Ec]2 | [DB]6 [FA]2 | ([Fd]2 [Af]2) ([Ge]2 [Fd]2) | [Ec]6 G2 | %11
 (cBc[Fd] [Ee]2) [Ec]2 | ([CA]2 [Ff]2 [Ge]2) [Ad]2 | c4 z2 F2 x2 | [Ec]8 |] %15
V:2
 x8 | x8 | G4 x4 | x8 | x8 | x10 | x8 | x8 | x8 | x8 | x6 G2 | G3 x5 | x8 | G6 B4 | x8 |] %15
V:3
 [C,E]4 [C,C]2 [E,C]2 | (C2 B,2 [A,C]2) [F,C]2 | (C2 F2) (E2 D2) | [C,C]4 z2 [C,G,]2 | %4
 [E,C]2 [G,C]2 C2 [A,C]2 | A,4 z2 ^F,2 x2 | G,6 [C,G,]2 | [C,G,]6 [C,G,]2 | (G,3 A, B,2) [D,D]2 | %9
 [D,A,]4 [G,B,]4 | [C,C]6 G,2 | (E,F,E,D, C,2) [C,G,]2 | (A,G,A,B, [E,C]2) [F,F]2 | %13
 [G,E]4 [G,,D]4 x2 | [C,C]8 |] %15
V:4
 x8 | G,4 x4 | G,4 G,4 | x8 | x4 C2 x2 | ^F,6 A,4 | G,6 x2 | x8 | G,4 x4 | x8 | x6 G,2 | G,6 x2 | %12
 F,2 D,2 x4 | x10 | x8 |] %15

